X: 24521
T: Lucy Farr's
R: barndance
M: 4/4
K: Gmajor
(3ABc||d2 d2 d2 d2|c>de>c d>cB>A|f2 f2 f2 f2|e>fg>e f2 d2||
|:f>ga>f e2 e2|f>ga>f d2 d2|1 e>fg>e c2 c2|B2 A2 B2 A2:|2 B2 g2 e2 d2|B>ge>c d>cB>A||

